svg/design/paint_2_line.svg

<?xml version="1.0" encoding="UTF-8"?>
<svg width="24px" height="24px" viewBox="0 0 24 24" version="1.1" xmlns="http://www.w3.org/2000/svg" xmlns:xlink="http://www.w3.org/1999/xlink">
    <title>paint_line</title>
    <g id="页面-1" stroke="none" stroke-width="1" fill="none" fill-rule="evenodd">
        <g id="Design" transform="translate(-336.000000, 0.000000)">
            <g id="paint_line" transform="translate(336.000000, 0.000000)">
                 <path d="M24,0 L24,24 L0,24 L0,0 L24,0 Z M12.5934901,23.257841 L12.5819402,23.2595131 L12.5108777,23.2950439 L12.4918791,23.2987469 L12.4918791,23.2987469 L12.4767152,23.2950439 L12.4056548,23.2595131 C12.3958229,23.2563662 12.3870493,23.2590235 12.3821421,23.2649074 L12.3780323,23.275831 L12.360941,23.7031097 L12.3658947,23.7234994 L12.3769048,23.7357139 L12.4804777,23.8096931 L12.4953491,23.8136134 L12.4953491,23.8136134 L12.5071152,23.8096931 L12.6106902,23.7357139 L12.6232938,23.7196733 L12.6232938,23.7196733 L12.6266527,23.7031097 L12.609561,23.275831 C12.6075724,23.2657013 12.6010112,23.2592993 12.5934901,23.257841 L12.5934901,23.257841 Z M12.8583906,23.1452862 L12.8445485,23.1473072 L12.6598443,23.2396597 L12.6498822,23.2499052 L12.6498822,23.2499052 L12.6471943,23.2611114 L12.6650943,23.6906389 L12.6699349,23.7034178 L12.6699349,23.7034178 L12.678386,23.7104931 L12.8793402,23.8032389 C12.8914285,23.8068999 12.9022333,23.8029875 12.9078286,23.7952264 L12.9118235,23.7811639 L12.8776777,23.1665331 C12.8752882,23.1545897 12.8674102,23.1470016 12.8583906,23.1452862 L12.8583906,23.1452862 Z M12.1430473,23.1473072 C12.1332178,23.1423925 12.1221763,23.1452606 12.1156365,23.1525954 L12.1099173,23.1665331 L12.0757714,23.7811639 C12.0751323,23.7926639 12.0828099,23.8018602 12.0926481,23.8045676 L12.108256,23.8032389 L12.3092106,23.7104931 L12.3186497,23.7024347 L12.3186497,23.7024347 L12.3225043,23.6906389 L12.340401,23.2611114 L12.337245,23.2485176 L12.337245,23.2485176 L12.3277531,23.2396597 L12.1430473,23.1473072 Z" id="MingCute" fill-rule="nonzero"></path>
                <path d="M3,5 C3,3.34315 4.34315,2 6,2 L16,2 C17.6569,2 19,3.34315 19,5 L20,5 C21.1046,5 22,5.89543 22,7 L22,8.38005 C22,10.9488 20.0535,13.0996 17.4975,13.3552 L12,13.905 L12,14 C13.1046,14 14,14.8954 14,16 L14,20 C14,21.1046 13.1046,22 12,22 L10,22 C8.89543,22 8,21.1046 8,20 L8,16 C8,14.8954 8.89543,14 10,14 L10,13.905 C10,12.8775 10.7786,12.0172 11.801,11.9149 L17.2985,11.3652 C18.8321,11.2118 20,9.9213 20,8.38005 L20,7 L19,7 C19,8.65685 17.6569,10 16,10 L6,10 C4.34315,10 3,8.65685 3,7 L3,5 Z M12,16 L10,16 L10,20 L12,20 L12,16 Z M6,4 C5.44772,4 5,4.44772 5,5 L5,7 C5,7.55228 5.44772,8 6,8 L16,8 C16.5523,8 17,7.55228 17,7 L17,5 C17,4.44772 16.5523,4 16,4 L6,4 Z" id="形状" fill="#09244B"></path>
            </g>
        </g>
    </g>
</svg>

<svg xmlns="http://www.w3.org/2000/svg" width="24" height="24"><g fill="none" fill-rule="evenodd"><path d="M24 0v24H0V0h24ZM12.593 23.258l-.011.002-.071.035-.02.004-.014-.004-.071-.035c-.01-.004-.019-.001-.024.005l-.004.01-.017.428.005.02.01.013.104.074.015.004.012-.004.104-.074.012-.016.004-.017-.017-.427c-.002-.01-.009-.017-.017-.018Zm.265-.113-.013.002-.185.093-.01.01-.003.011.018.43.005.012.008.007.201.093c.012.004.023 0 .029-.008l.004-.014-.034-.614c-.003-.012-.01-.02-.02-.022Zm-.715.002a.023.023 0 0 0-.027.006l-.006.014-.034.614c0 .012.007.02.017.024l.015-.002.201-.093.01-.008.004-.011.017-.43-.003-.012-.01-.01-.184-.092Z"/><path fill="#09244B" d="M3 5a3 3 0 0 1 3-3h10a3 3 0 0 1 3 3h1a2 2 0 0 1 2 2v1.38a5 5 0 0 1-4.503 4.975l-5.497.55V14a2 2 0 0 1 2 2v4a2 2 0 0 1-2 2h-2a2 2 0 0 1-2-2v-4a2 2 0 0 1 2-2v-.095a2 2 0 0 1 1.801-1.99l5.498-.55A3 3 0 0 0 20 8.38V7h-1a3 3 0 0 1-3 3H6a3 3 0 0 1-3-3V5Zm9 11h-2v4h2v-4ZM6 4a1 1 0 0 0-1 1v2a1 1 0 0 0 1 1h10a1 1 0 0 0 1-1V5a1 1 0 0 0-1-1H6Z"/></g></svg>
